Obsidian-SemiLight/actions/16s/office-chart-area-stacked.svg

<svg viewBox="0 0 16 16" xmlns="http://www.w3.org/2000/svg"><g fill="#4d4d4d"><path d="m2 2v2.9960938h-.9921875v.0097656h.9921875v8.9941406h12v-1h-11v-7.9941406h4.46875l-3 3h-1.4609375v1h1.875l4.1230469-4.1230469 2.1230466 2.1230469.00586-.0039063.003906.0039063 2.828125-2.828125c.003.005-.707031-.7070313-.707031-.7070313l-2.125 2.125-2.1269535-2.125-.0019531.0019531-.0019532-.0019531-1.5273437 1.5253907h-4.4765625v-2.9960938zm5.5996094 7-2 2h-2.59375v1h3v-.007812l.0078125.007812 2-2h1.5917969l2.0000002 2h2.40039v-1h-1.986328l-2-2h-1.4140622z"/><path d="m13.46 3.67-2.32 2.331-.004-.004-.006.004-2.123-2.123-4.123 4.123h-1.875v5h11v-8.778z" fill-opacity=".5"/></g></svg>

<svg xmlns="http://www.w3.org/2000/svg" viewBox="0 0 16 16">
  <defs id="defs3051">
    <style type="text/css" id="current-color-scheme">
      .ColorScheme-Text {
        color:#4d4d4d;
      }
      </style>
  </defs>
 <path 
     style="fill:currentColor;fill-opacity:1;stroke:none" 
     d="M 2 2 L 2 4.9960938 L 1.0078125 4.9960938 L 1.0078125 5.0058594 L 2 5.0058594 L 2 14 L 14 14 L 14 13 L 3 13 L 3 5.0058594 L 7.46875 5.0058594 L 4.46875 8.0058594 L 3.0078125 8.0058594 L 3.0078125 9.0058594 L 4.8828125 9.0058594 L 9.0058594 4.8828125 L 11.128906 7.0058594 L 11.134766 7.0019531 L 11.138672 7.0058594 L 13.966797 4.1777344 C 13.969797 4.1827344 13.259766 3.4707031 13.259766 3.4707031 L 11.134766 5.5957031 L 9.0078125 3.4707031 L 9.0058594 3.4726562 L 9.0039062 3.4707031 L 7.4765625 4.9960938 L 3 4.9960938 L 3 2 L 2 2 z M 7.5996094 9 L 5.5996094 11 L 3.0058594 11 L 3.0058594 12 L 6.0058594 12 L 6.0058594 11.992188 L 6.0136719 12 L 8.0136719 10 L 9.6054688 10 L 11.605469 12 L 14.005859 12 L 14.005859 11 L 12.019531 11 L 10.019531 9 L 8.6054688 9 L 7.5996094 9 z "
     class="ColorScheme-Text"/>
 <path 
     style="fill:currentColor;fill-opacity:0.5;stroke:none" 
     d="M 13.46,3.67 11.14,6.001 11.136,5.997 11.13,6.001 9.007,3.878 4.884,8.001 l -1.875,0 0,5 11,0 0,-8.778 z"
     class="ColorScheme-Text"/>
</svg>
